src/assets/top/LongHairShavedSides.svg

<svg width='280px' height='280px' viewBox='0 0 280 280' version='1.1' xmlns='http://www.w3.org/2000/svg'>
      <g id='Top' strokeWidth='1' fillRule='evenodd'>
        <defs>
          <rect id='path2' x='0' y='0' width='264' height='280' />
          <path
            d='M156,180.610951 C173.530782,172.282984 186.048193,155.114792 187.791419,134.867187 C193.569129,134.002364 198,129.018625 198,123 L198,110 C198,104.054007 193.675427,99.1180731 188,98.1659169 L188,92 C188,61.072054 162.927946,36 132,36 C101.072054,36 76,61.072054 76,92 L76,92 L76,98.1659169 C70.3245733,99.1180731 66,104.054007 66,110 L66,123 C66,129.018625 70.4308707,134.002364 76.2085808,134.867187 C77.9518066,155.114792 90.4692178,172.282984 108,180.610951 L108,199 L104,199 L104,199 C64.235498,199 32,231.235498 32,271 L32,280 L232,280 L232,271 C232,231.235498 199.764502,199 160,199 L156,199 L156,180.610951 Z M0,5.68434189e-14 L264,5.68434189e-14 L264,280 L0,280 L0,5.68434189e-14 Z'
            id='path3'
          />
          <rect id='path4' x='0' y='0' width='112' height='150' rx='56' />
          <path
            d='M65.1802189,77.7372986 C67.3631845,76.1045334 80.4065113,75.4786511 82.757829,74.0894494 C83.4916461,73.6553857 84.0610723,73.215719 84.4997781,72.7800074 C84.938814,73.215719 85.5085703,73.6553857 86.2423874,74.0894494 C88.593375,75.4786511 101.636702,76.1045334 103.819667,77.7372986 C106.030032,79.3908276 107.643571,83.1846831 107.466966,86.15095 C107.255041,89.7101408 103.361486,98.2028927 93.6723269,99.1811016 C91.5576925,96.8281927 88.2368647,95.3104528 84.4997781,95.3104528 C80.7633517,95.3104528 77.4421938,96.8281927 75.3275594,99.1811016 C65.6387308,98.2028927 61.7451757,89.7101408 61.5332501,86.15095 C61.3566455,83.1846831 62.9701849,79.3908276 65.1802189,77.7372986 M103.141638,94.9063813 C103.142958,94.9057221 103.144609,94.905063 103.145929,94.9047334 C103.144278,94.905063 103.142958,94.9057221 103.141638,94.9063813 M65.8453747,94.9014375 C65.8493359,94.9030855 65.8565982,94.9057221 65.8618798,94.9076997 C65.8565982,94.9057221 65.8509864,94.9034151 65.8453747,94.9014375 M144.86259,55.9853335 C144.47439,50.0303878 143.277769,44.1519058 142.233986,38.2862777 C141.952739,36.7072349 140.423706,26 139.734783,26 C139.502391,35.1094058 138.701893,44.0803858 137.669664,53.1393651 C137.361018,55.8475668 137.037848,58.5564277 136.825262,61.2741874 C136.653609,63.4695546 136.959614,66.1220564 136.427819,68.2455739 C135.749129,70.9524573 132.348087,73.4783984 129.702978,74.410795 C123.102915,76.7373371 117.597802,67.1077689 111.960977,64.2911336 C104.643272,60.6347152 92.0637391,59.7639895 84.5816434,64.5297918 C76.9361472,59.7639895 64.356614,60.6347152 57.0389092,64.2911336 C51.4024147,67.1077689 45.8969708,76.7373371 39.2972383,74.410795 C36.6521296,73.4783984 33.2504268,70.9524573 32.572397,68.2455739 C32.0402723,66.1220564 32.346277,63.4695546 32.174954,61.2741874 C31.9623682,58.5564277 31.6388681,55.8475668 31.3302226,53.1393651 C30.2983232,44.0803858 29.4974953,35.1094058 29.2654335,26 C28.5761802,26 27.0468169,36.7072349 26.7658999,38.2862777 C25.7221169,44.1519058 24.5258266,50.0303878 24.1376265,55.9853335 C23.738533,62.1047422 24.2148704,68.1674622 25.4695887,74.1632765 C26.0687242,77.0277016 26.7685407,79.8756475 27.518863,82.7041478 C28.352701,85.8467429 27.198994,91.9661516 27.5723395,95.1921317 C28.2787581,101.29572 31.1542781,113.199679 34.3833375,118.45096 C35.9440605,120.989096 37.7734867,122.573742 39.816489,124.619148 C41.7825775,126.58809 42.6038717,129.640049 44.7260985,131.73687 C48.6820428,135.645092 54.4456266,137.971304 60.3656788,138.543134 C65.6773527,143.050212 74.505605,146 84.4997781,146 C94.4946114,146 103.322534,143.050212 108.634538,138.543134 C114.55393,137.971304 120.317843,135.645092 124.274118,131.73687 C126.396015,129.640049 127.217309,126.58809 129.183727,124.619148 C131.2264,122.573742 133.055826,120.989096 134.616879,118.45096 C137.845608,113.199679 140.721458,101.29572 141.427547,95.1921317 C141.800892,91.9661516 140.647185,85.8467429 141.481353,82.7041478 C142.231676,79.8756475 142.931162,77.0277016 143.530628,74.1632765 C144.784686,68.1674622 145.261353,62.1047422 144.86259,55.9853335 Z'
            id='path1'
          />
        </defs>
        <mask id='mask2' fill='white'>
          <use href='#path2' />
        </mask>
        <g id='Mask' />
        <g id='Top/Long-Hair/Shaved-Sides' mask='url("#mask2")'>
          <g transform='translate(-1.000000, 0.000000)'>
            <g
              id='Behind'
              strokeWidth='1'
              fill='none'
              fillRule='evenodd'
              transform='translate(1.000000, 0.000000)'>
              <mask id='mask3' fill='white'>
                <use href='#path3' />
              </mask>
              <g id='Mask-Hair' />
              <path
                d='M116.179148,40 L146,40 C171.405098,40 192,60.5949015 192,86 L192,154.108712 C192,180.650314 210.758775,204.349179 222.609956,226.05167 C234.461138,247.754161 215.254522,268.242596 195.770735,276.769484 C190.902336,278.900091 185.645645,280 180.331438,280 L135.26309,280 C78.9108161,280 70.2166412,216.309596 67.6972794,146.504423 L70.2166412,84.1431398 C71.212998,59.4805095 91.4964003,40 116.179148,40 Z'
                class='CustomColor'
                fill='#CCB55A'
                mask='url("#mask3")'
              />
            </g>
            <g
              id='Top'
              strokeWidth='1'
              fill='none'
              fillRule='evenodd'
              transform='translate(77.000000, 36.000000)'>
              <mask id='mask1' fill='white'>
                <use href='#path4' />
              </mask>
              <g id='Mask' />
              <path
                d='M98.8014742,19.9396383 C107.026909,29.4843994 112,41.9114359 112,55.5 L112,65.5 L112,61.5 C112,45.7605792 105.327989,31.5794902 94.657974,21.6307409 C63.9198041,32.6768506 38.0141969,32.8027026 16.9411526,22.0082968 C6.50516181,31.936614 -1.90326939e-15,45.958626 0,61.5 L0,61.5 L0,65.5 L0,55.5 C-1.66642407e-15,41.8926148 4.98687681,29.4499771 13.2327229,19.8999944 C9.3991564,16.860899 8.25944611,8.18718262 19.4671989,4.87682391 C31.3115751,1.37843003 29.3063159,-13.2020165 47.4575903,-15.9260752 C65.6088648,-18.6501339 63.9714902,-11.3745857 81.028596,-12.3495122 C98.0857017,-13.3244386 103.635746,-29.1131795 106.849606,-25.0739991 C119.588767,-9.06341321 116.420993,9.34036319 98.8014742,19.9396383 Z'
                id='Shadow'
                opacity='0.16'
                fill='#000000'
                mask='url("#mask1")'
              />
            </g>
            <path
              d='M90.8779151,52.3613196 C113.02785,65.2272934 140.816672,65.2272934 174.244382,52.3613196 C188.77455,44.5891967 199.330608,29.0424257 182.951044,8.96303524 C180.782417,6.30455678 172.244382,15.6755614 155.351199,16.6504878 C138.458015,17.6254143 142.079654,13.3498661 124.102817,16.0739248 C106.12598,18.7979835 108.111968,33.37843 96.3814191,36.8768239 C84.6508698,40.3752178 86.5778198,49.8635735 90.8779151,52.3613196 Z'
              class='CustomColor'
              fill='#E0C863'
              fillRule='evenodd'
            />
          </g>
        </g>
      </g>
</svg>

<svg width="280" height="280" xmlns="http://www.w3.org/2000/svg"><defs><path id="a" d="M0 0h264v280H0z"/><path d="M156 180.611c17.53-8.328 30.048-25.496 31.791-45.744C193.57 134.002 198 129.02 198 123v-13c0-5.946-4.325-10.882-10-11.834V92c0-30.928-25.072-56-56-56S76 61.072 76 92v6.166c-5.675.952-10 5.888-10 11.834v13c0 6.019 4.43 11.002 10.209 11.867 1.743 20.248 14.26 37.416 31.791 45.744V199h-4c-39.765 0-72 32.235-72 72v9h200v-9c0-39.765-32.235-72-72-72h-4v-18.389zM0 0h264v280H0V0z" id="c"/><rect id="e" x="0" y="0" width="112" height="150" rx="56"/></defs><mask id="b" fill="#fff"><use href="#a"/></mask><g mask="url(&quot;#b&quot;)"><g fill="none"><mask id="d" fill="#fff"><use href="#c"/></mask><path d="M116.18 40H146c25.405 0 46 20.595 46 46v68.109c0 26.541 18.759 50.24 30.61 71.943 11.851 21.702-7.355 42.19-26.84 50.717A38.509 38.509 0 01180.332 280h-45.068c-56.352 0-65.046-63.69-67.566-133.496l2.52-62.36C71.213 59.48 91.497 40 116.179 40z" class="CustomColor" fill="#CCB55A" mask="url(&quot;#d&quot;)"/></g><g fill="none" transform="translate(76 36)"><mask id="f" fill="#fff"><use href="#e"/></mask><path d="M98.801 19.94C107.027 29.484 112 41.91 112 55.5v10-4c0-15.74-6.672-29.92-17.342-39.87-30.738 11.047-56.644 11.173-77.717.378C6.505 31.937 0 45.958 0 61.5v4-10c0-13.607 4.987-26.05 13.233-35.6-3.834-3.04-4.974-11.713 6.234-15.023 11.845-3.499 9.84-18.079 27.99-20.803C65.61-18.65 63.972-11.375 81.03-12.35c17.057-.974 22.607-16.763 25.82-12.724 12.74 16.01 9.572 34.414-8.048 45.014z" opacity=".16" fill="#000" mask="url(&quot;#f&quot;)"/></g><path d="M89.878 52.361c22.15 12.866 49.939 12.866 83.366 0 14.53-7.772 25.087-23.319 8.707-43.398-2.169-2.658-10.707 6.713-27.6 7.687-16.893.975-13.271-3.3-31.248-.576-17.977 2.724-15.991 17.304-27.722 20.803-11.73 3.498-9.803 12.987-5.503 15.484z" class="CustomColor" fill="#E0C863"/></g></svg>
